X: 2
T: Fox On The Town, The
Z: gian marco
S: https://thesession.org/tunes/341#setting13128
R: reel
M: 4/4
L: 1/8
K: Gmaj
g2fg edBA|~G2BG DG(3Bcd|gedg ~e3f|g2fd efga|be~e2 edBA|~G2BG DG(3Bcd|efgb agfa|~g3f g3a:|be~e2 bage|dB~B2 dega|be~e2 bage|dgge ~a3b|~g3d egdB|G2(3Bcd edBd|efgb agfa|~g3f g3a:|
